X: 20893
T: Josefin's
R: waltz
M: 3/4
K: Fmajor
"F" AGF|E2F|F3|B,CB,|
A,CF|"C"EDE|"Bb"(F3|F3)|:"F"CFG|AcB|
AGF|C2D|"Bb"B,>B,B,|DFE|D3|"C"C3|
"F"CFG|AcB|AGF|C2D|"Bb"B,>B,B,|CEF|
"C"(G3|1 . G3):|2 . G)AB|:"F"cAc|f2e|"Bb"d3|
"F"c3|"Bb"Bdc|BAG|"F"A>BA|"C"GAB|"F"cAc|
f2e|"Bb"d3|"F"c3|"Bb"Bdc|BAG|"F"A>BA|
"C"GAB|"dm"AGF|"am"E2F|"Bb"F3|B,CB,|"F"A,CF|
"C"EDE|"Bb"(F3|1 . F)AB:|2 . F3)||"F"HF3||

